src/ikoner/person-2.svg

<?xml version="1.0" encoding="UTF-8"?>
<svg width="20px" height="20px" viewBox="0 0 20 20" version="1.1" xmlns="http://www.w3.org/2000/svg" xmlns:xlink="http://www.w3.org/1999/xlink">
    <!-- Generator: Sketch 55.2 (78181) - https://sketchapp.com -->
    <title>Outline/11-users/person-2</title>
    <desc>Created with Sketch.</desc>
    <g id="↳-1" stroke="none" stroke-width="1" fill="none" fill-rule="evenodd">
        <g id="Kurs-detaljside" transform="translate(-918.000000, -584.000000)" fill="#3E3832">
            <g id="Group-6" transform="translate(918.000000, 424.000000)">
                <g id="frist-copy-2" transform="translate(0.000000, 158.000000)">
                    <g id="Group-2">
                        <g id="Outline/05-votes-rewards/rank-army-star-1" transform="translate(0.000000, 2.000000)">
                            <path d="M19.9775,7.36416666 C19.9191667,7.19583332 19.7608334,7.08333332 19.5833334,7.08333332 L12.795,7.08333332 L10.3933333,0.278333293 C10.2758333,-0.055000042 9.72416667,-0.055000042 9.6075,0.278333293 L7.20499999,7.08333332 L0.416666627,7.08333332 C0.239166626,7.08333332 0.080833292,7.19583332 0.0224999584,7.36416666 C-0.0350000418,7.53166666 0.0191666251,7.71833332 0.159166626,7.82833332 L5.76166665,12.23 L3.35416664,19.4516667 C3.29749997,19.6241667 3.35749997,19.8133334 3.50416664,19.9208334 C3.65083331,20.0266667 3.84999997,20.0275 3.99666664,19.92 L10,15.5166667 L16.0033334,19.9191667 C16.0766667,19.9733334 16.1633334,20 16.25,20 C16.3366667,20 16.4225,19.9733334 16.4958334,19.92 C16.6425,19.8125 16.7025,19.6241667 16.6458334,19.4508334 L14.2383334,12.2291667 L19.8408334,7.82749999 C19.9808334,7.71833332 20.035,7.53166666 19.9775,7.36416666 Z M13.4925,11.755 C13.3541667,11.8641667 13.2991667,12.0483333 13.3541667,12.215 L15.4408334,18.4733334 L10.2466667,14.6641667 C10.1733333,14.61 10.0866667,14.5833334 10,14.5833334 C9.91333333,14.5833334 9.82666667,14.61 9.75333333,14.6641667 L4.55916664,18.4733334 L6.64583332,12.215 C6.70083332,12.0483333 6.64583332,11.8641667 6.50749999,11.755 L1.6208333,7.91666666 L7.49999999,7.91666666 C7.67666666,7.91666666 7.83416666,7.80499999 7.89333332,7.63833332 L10,1.6683333 L12.1066667,7.63833332 C12.1658333,7.80499999 12.3233333,7.91666666 12.5,7.91666666 L18.3791667,7.91666666 L13.4925,11.755 Z" id="line/rank-army-star-1"></path>
                        </g>
                    </g>
                </g>
            </g>
        </g>
    </g>
</svg>

<svg width="20px" height="20px" 
    xmlns="http://www.w3.org/2000/svg">
    <path d="M19.98 7.36a.42.42 0 0 0-.4-.28H12.8L10.4.28c-.12-.34-.68-.34-.8 0l-2.4 6.8H.42a.42.42 0 0 0-.26.75l5.6 4.4-2.4 7.22c-.06.17 0 .36.14.47.15.1.35.1.5 0l6-4.4 6 4.4a.41.41 0 0 0 .5 0c.14-.1.2-.3.15-.47l-2.41-7.22 5.6-4.4c.14-.11.2-.3.14-.47zm-6.49 4.4c-.14.1-.2.29-.14.46l2.1 6.25-5.2-3.8a.41.41 0 0 0-.5 0l-5.2 3.8 2.1-6.25a.42.42 0 0 0-.14-.46L1.62 7.92H7.5c.18 0 .33-.12.4-.28L10 1.67l2.1 5.97c.07.16.22.28.4.28h5.88l-4.89 3.84z" fill="#3E3832" fill-rule="evenodd"/>
</svg>
